svg/FoundationIcons/fi-social-blogger.svg

<svg xmlns="http://www.w3.org/2000/svg" viewBox="0 0 100 100" enable-background="new 0 0 100 100"><g fill-rule="evenodd"><path d="m74.12 14h-48.24c-6.529 0-11.88 5.351-11.88 11.88v48.24c0 6.53 5.351 11.88 11.88 11.88h48.24c6.529 0 11.879-5.35 11.879-11.88v-48.24c0-6.529-5.35-11.88-11.879-11.88m-2.3 43.982c-.044 7.649-6.264 13.913-13.928 13.913h-16.01c-7.664 0-13.928-6.264-13.928-13.913v-16.257c0-7.665 6.264-13.943 13.928-13.943h9.743c3.596.428 8.829 3.508 10.759 7.605.531 1.149.81 1.326 1.253 4.73.236 1.754.354 3.051 1.135 3.773 1.105 1 5.203.324 6.01.958l.619.486.368.767.133.619-.089 11.262"/><path d="m42.06 44.495h7.724c1.474 0 2.668-1.209 2.668-2.668 0-1.459-1.194-2.653-2.668-2.653h-7.724c-1.474 0-2.667 1.194-2.667 2.653 0 1.459 1.193 2.668 2.667 2.668"/><path d="m57.76 55.12h-15.697c-1.474 0-2.667 1.193-2.667 2.653 0 1.443 1.194 2.652 2.667 2.652h15.697c1.459 0 2.653-1.209 2.653-2.652.0001-1.46-1.194-2.653-2.653-2.653"/></g></svg>

<?xml version="1.0" encoding="utf-8"?>
<!-- Generator: Adobe Illustrator 17.0.0, SVG Export Plug-In . SVG Version: 6.00 Build 0)  -->
<!DOCTYPE svg PUBLIC "-//W3C//DTD SVG 1.1//EN" "http://www.w3.org/Graphics/SVG/1.1/DTD/svg11.dtd">
<svg version="1.1" id="Layer_1" xmlns="http://www.w3.org/2000/svg" xmlns:xlink="http://www.w3.org/1999/xlink" x="0px" y="0px"
	 width="100px" height="100px" viewBox="0 0 100 100" enable-background="new 0 0 100 100" xml:space="preserve">
<g>
	<path fill-rule="evenodd" clip-rule="evenodd" d="M74.121,14H25.88C19.351,14,14,19.351,14,25.88v48.24
		C14,80.65,19.351,86,25.88,86h48.241C80.65,86,86,80.65,86,74.12V25.88C86,19.351,80.65,14,74.121,14z M71.821,57.982
		c-0.044,7.649-6.264,13.913-13.928,13.913H41.886c-7.664,0-13.928-6.264-13.928-13.913V41.725c0-7.665,6.264-13.943,13.928-13.943
		h9.743c3.596,0.428,8.829,3.508,10.759,7.605c0.531,1.149,0.81,1.326,1.253,4.73c0.236,1.754,0.354,3.051,1.135,3.773
		c1.105,1.002,5.203,0.324,6.014,0.958l0.619,0.486l0.368,0.767l0.133,0.619L71.821,57.982z"/>
	<path fill-rule="evenodd" clip-rule="evenodd" d="M42.063,44.495h7.724c1.474,0,2.668-1.209,2.668-2.668
		c0-1.459-1.194-2.653-2.668-2.653h-7.724c-1.474,0-2.667,1.194-2.667,2.653C39.396,43.286,40.589,44.495,42.063,44.495z"/>
	<path fill-rule="evenodd" clip-rule="evenodd" d="M57.76,55.122H42.063c-1.474,0-2.667,1.193-2.667,2.653
		c0,1.443,1.194,2.652,2.667,2.652H57.76c1.459,0,2.653-1.209,2.653-2.652C60.414,56.315,59.219,55.122,57.76,55.122z"/>
</g>
</svg>
